src/main/resources/static/fa/svgs/solid/qrcode.svg

<svg xmlns="http://www.w3.org/2000/svg" viewBox="0 0 448 512"><!--! Font Awesome Free 6.5.2 by @fontawesome - https://fontawesome.com License - https://fontawesome.com/license/free (Icons: CC BY 4.0, Fonts: SIL OFL 1.1, Code: MIT License) Copyright 2024 Fonticons, Inc. --><path d="M0 80C0 53.5 21.5 32 48 32h96c26.5 0 48 21.5 48 48v96c0 26.5-21.5 48-48 48H48c-26.5 0-48-21.5-48-48V80zM64 96v64h64V96H64zM0 336c0-26.5 21.5-48 48-48h96c26.5 0 48 21.5 48 48v96c0 26.5-21.5 48-48 48H48c-26.5 0-48-21.5-48-48V336zm64 16v64h64V352H64zM304 32h96c26.5 0 48 21.5 48 48v96c0 26.5-21.5 48-48 48H304c-26.5 0-48-21.5-48-48V80c0-26.5 21.5-48 48-48zm80 64H320v64h64V96zM256 304c0-8.8 7.2-16 16-16h64c8.8 0 16 7.2 16 16s7.2 16 16 16h32c8.8 0 16-7.2 16-16s7.2-16 16-16s16 7.2 16 16v96c0 8.8-7.2 16-16 16H368c-8.8 0-16-7.2-16-16s-7.2-16-16-16s-16 7.2-16 16v64c0 8.8-7.2 16-16 16H272c-8.8 0-16-7.2-16-16V304zM368 480a16 16 0 1 1 0-32 16 16 0 1 1 0 32zm64 0a16 16 0 1 1 0-32 16 16 0 1 1 0 32z"/></svg>

<svg xmlns="http://www.w3.org/2000/svg" viewBox="0 0 448 512"><!--! Font Awesome Free 6.1.1 by @fontawesome - https://fontawesome.com License - https://fontawesome.com/license/free (Icons: CC BY 4.0, Fonts: SIL OFL 1.1, Code: MIT License) Copyright 2022 Fonticons, Inc. --><path d="M144 32C170.5 32 192 53.49 192 80V176C192 202.5 170.5 224 144 224H48C21.49 224 0 202.5 0 176V80C0 53.49 21.49 32 48 32H144zM128 96H64V160H128V96zM144 288C170.5 288 192 309.5 192 336V432C192 458.5 170.5 480 144 480H48C21.49 480 0 458.5 0 432V336C0 309.5 21.49 288 48 288H144zM128 352H64V416H128V352zM256 80C256 53.49 277.5 32 304 32H400C426.5 32 448 53.49 448 80V176C448 202.5 426.5 224 400 224H304C277.5 224 256 202.5 256 176V80zM320 160H384V96H320V160zM352 448H384V480H352V448zM448 480H416V448H448V480zM416 288H448V416H352V384H320V480H256V288H352V320H416V288z"/></svg>
